ui/StatusQ/src/assets/img/icons/snt.svg

<svg fill="none" height="81" viewBox="0 0 81 81" width="81" xmlns="http://www.w3.org/2000/svg"><path d="m7.45117 12.354c0-2.76142 2.23858-5 5.00003-5h56.1165c2.7614 0 5 2.23858 5 5v56.0348c0 2.7614-2.2386 5-5 5h-56.1165c-2.76145 0-5.00003-2.2386-5.00003-5z" fill="#4360df"/><path clip-rule="evenodd" d="m40.5094 7.35449c-18.2577-.00053-33.05823 14.78141-33.05823 33.01691 0 18.2354 14.80053 33.0174 33.05823 33.0174 18.2578 0 33.0583-14.7826 33.0583-33.0174 0-18.2349-14.8005-33.01691-33.0583-33.01691z" fill="#fff" fill-rule="evenodd"/><path clip-rule="evenodd" d="m46.0856 40.0664c-3.9622.2281-6.4453-.6937-10.408-.4652-.9828.0552-1.9589.1974-2.9166.4252.5849-7.3192 5.7713-13.7218 12.8239-14.1288 4.328-.2494 8.6538 2.4194 8.8884 6.7519.2309 4.2583-3.02 7.1072-8.3872 7.4164zm-10.64 14.9711c-4.1461.2339-8.2896-2.2645-8.5146-6.3188-.2213-3.9854 2.8937-6.6516 8.0353-6.941 3.7953-.2137 6.1744.6494 9.9697.4352.9411-.0515 1.8759-.1846 2.794-.3978-.5593 6.8496-5.5277 12.8421-12.2844 13.2224zm5.0638-47.68296c-18.2577-.00054-33.05823 14.78146-33.05823 33.01686s14.80053 33.0174 33.05823 33.0174c18.2578 0 33.0583-14.7825 33.0583-33.0174s-14.8005-33.0174-33.0583-33.0174" fill="#4360df" fill-rule="evenodd"/><path d="m12.4512 14.354h56.1165v-13.999996h-56.1165zm54.1165-2v56.0348h14v-56.0348zm2 54.0348h-56.1165v14h56.1165zm-54.1165 2v-56.0348h-14.000028v56.0348zm-2-2c1.1045 0 2 .8954 2 2h-14.000028c0 6.6274 5.372588 12 12.000028 12zm54.1165 2c0-1.1046.8954-2 2-2v14c6.6274 0 12-5.3726 12-12zm2-54.0348c-1.1046 0-2-.8954-2-2h14c0-6.62742-5.3726-11.999996-12-11.999996zm-56.1165-13.999996c-6.62744 0-12.000028 5.372576-12.000028 11.999996h14.000028c0 1.1046-.8955 2-2 2z" fill="#fff"/></svg>

<svg width="81" height="81" viewBox="0 0 81 81" fill="none" xmlns="http://www.w3.org/2000/svg">
<path d="M7.45117 12.354C7.45117 9.59258 9.68975 7.354 12.4512 7.354H68.5677C71.3291 7.354 73.5677 9.59258 73.5677 12.354V68.3888C73.5677 71.1502 71.3291 73.3888 68.5677 73.3888H12.4512C9.68975 73.3888 7.45117 71.1502 7.45117 68.3888V12.354Z" fill="#4360DF"/>
<path fill-rule="evenodd" clip-rule="evenodd" d="M40.5094 7.35449C22.2517 7.35396 7.45117 22.1359 7.45117 40.3714C7.45117 58.6068 22.2517 73.3888 40.5094 73.3888C58.7672 73.3888 73.5677 58.6062 73.5677 40.3714C73.5677 22.1365 58.7672 7.35449 40.5094 7.35449Z" fill="white"/>
<path fill-rule="evenodd" clip-rule="evenodd" d="M46.0856 40.0664C42.1234 40.2945 39.6403 39.3727 35.6776 39.6012C34.6948 39.6564 33.7187 39.7986 32.761 40.0264C33.3459 32.7072 38.5323 26.3046 45.5849 25.8976C49.9129 25.6482 54.2387 28.317 54.4733 32.6495C54.7042 36.9078 51.4533 39.7567 46.0861 40.0659L46.0856 40.0664ZM35.4456 55.0375C31.2995 55.2714 27.156 52.773 26.931 48.7187C26.7097 44.7333 29.8247 42.0671 34.9663 41.7777C38.7616 41.564 41.1407 42.4271 44.936 42.2129C45.8771 42.1614 46.8119 42.0283 47.73 41.8151C47.1707 48.6647 42.2023 54.6572 35.4456 55.0375ZM40.5094 7.35454C22.2517 7.354 7.45117 22.136 7.45117 40.3714C7.45117 58.6068 22.2517 73.3888 40.5094 73.3888C58.7672 73.3888 73.5677 58.6063 73.5677 40.3714C73.5677 22.1365 58.7672 7.354 40.5094 7.354" fill="#4360DF"/>
<path d="M12.4512 14.354H68.5677V0.354004H12.4512V14.354ZM66.5677 12.354V68.3888H80.5677V12.354H66.5677ZM68.5677 66.3888H12.4512V80.3888H68.5677V66.3888ZM14.4512 68.3888V12.354H0.451172V68.3888H14.4512ZM12.4512 66.3888C13.5557 66.3888 14.4512 67.2842 14.4512 68.3888H0.451172C0.451172 75.0162 5.82376 80.3888 12.4512 80.3888V66.3888ZM66.5677 68.3888C66.5677 67.2842 67.4631 66.3888 68.5677 66.3888V80.3888C75.1951 80.3888 80.5677 75.0162 80.5677 68.3888H66.5677ZM68.5677 14.354C67.4631 14.354 66.5677 13.4586 66.5677 12.354H80.5677C80.5677 5.72658 75.1951 0.354004 68.5677 0.354004V14.354ZM12.4512 0.354004C5.82376 0.354004 0.451172 5.72658 0.451172 12.354H14.4512C14.4512 13.4586 13.5557 14.354 12.4512 14.354V0.354004Z" fill="white"/>
</svg>
